sharp/svg/toc.svg

<svg xmlns="http://www.w3.org/2000/svg" width="24" height="24"><path fill="none" d="M0 0h24v24H0V0z"/><path fill="none" d="M0 0h24v24H0V0z"/><g fill="currentColor"><path d="M3 9h14V7H3v2zm0 4h14v-2H3v2zm0 4h14v-2H3v2zm16 0h2v-2h-2v2zm0-10v2h2V7h-2zm0 6h2v-2h-2v2z"/><path d="M3 9h14V7H3v2zm0 4h14v-2H3v2zm0 4h14v-2H3v2zm16 0h2v-2h-2v2zm0-10v2h2V7h-2zm0 6h2v-2h-2v2z"/></g></svg>

<?xml version="1.0" encoding="utf-8"?>
<!-- Generator: Adobe Illustrator 19.1.0, SVG Export Plug-In . SVG Version: 6.00 Build 0)  -->
<svg version="1.1" xmlns="http://www.w3.org/2000/svg" xmlns:xlink="http://www.w3.org/1999/xlink" x="0px" y="0px" width="24px"
	 height="24px" viewBox="0 0 24 24" enable-background="new 0 0 24 24" xml:space="preserve">
<g id="Bounding_Boxes">
	<g id="ui_x5F_spec_x5F_header_copy_3">
	</g>
	<path fill="none" d="M0,0h24v24H0V0z"/>
	<path fill="none" d="M0,0h24v24H0V0z"/>
</g>
<g id="Sharp" fill="currentColor">
	<g id="ui_x5F_spec_x5F_header_copy_4">
	</g>
	<path d="M3,9h14V7H3V9z M3,13h14v-2H3V13z M3,17h14v-2H3V17z M19,17h2v-2h-2V17z M19,7v2h2V7H19z M19,13h2v-2h-2V13z"/>
	<path d="M3,9h14V7H3V9z M3,13h14v-2H3V13z M3,17h14v-2H3V17z M19,17h2v-2h-2V17z M19,7v2h2V7H19z M19,13h2v-2h-2V13z"/>
</g>
</svg>
